assets/img/musicbutton.svg

<svg viewBox="0 0 634 618" fill="none" xmlns="http://www.w3.org/2000/svg">
<g filter="url(#filter0_d_1921_3431)">
<path d="M316.125 22.8632C156.534 22.8632 27.1597 149.661 27.1597 306.075C27.1597 462.487 156.534 589.286 316.125 589.286H321.065C480.657 589.286 610.032 462.487 610.032 306.075C610.032 149.661 480.657 22.8632 321.065 22.8632H316.125Z" fill="url(#paint0_linear_1921_3431)"/>
</g>
<g filter="url(#filter1_d_1921_3431)">
<path d="M13.8862 404.842V210.062C13.8867 158.01 34.9848 108.089 72.5401 71.282C110.095 34.4753 161.03 13.7971 214.141 13.7971H420.46C473.572 13.7976 524.506 34.4758 562.06 71.2825C599.614 108.089 620.713 158.01 620.713 210.062V404.842C620.713 456.893 599.619 506.815 562.06 543.623C524.506 580.427 473.572 601.106 420.46 601.106H214.141C161.03 601.106 110.094 580.432 72.5391 543.623C34.9843 506.815 13.8862 456.893 13.8862 404.842Z" fill="url(#paint1_linear_1921_3431)"/>
</g>
<path d="M17.6093 274.563L97.6391 106.356C118.705 62.0792 156.854 27.818 203.694 11.1089C250.535 -5.60027 302.229 -3.38778 347.405 17.2585L525.481 98.6439C547.852 108.867 567.948 123.308 584.62 141.143C601.296 158.977 614.224 179.856 622.663 202.587C631.108 225.318 634.898 249.456 633.821 273.623C632.744 297.79 626.819 321.512 616.391 343.436L536.361 511.642C515.294 555.919 477.144 590.182 430.304 606.889C383.464 623.601 331.77 621.388 286.594 600.741L108.517 519.355C63.3405 498.708 28.3832 461.318 11.3345 415.41C-5.71382 369.504 -3.45689 318.839 17.6093 274.563Z" fill="url(#paint2_linear_1921_3431)"/>
<path d="M90.9043 320.28L125.451 193.996C136.154 154.872 162.276 121.518 198.071 101.271C233.866 81.0234 276.402 75.5421 316.321 86.0318L453.151 121.987C493.071 132.477 527.103 158.079 547.759 193.161C568.419 228.243 574.012 269.932 563.312 309.056L528.762 435.341C518.062 474.463 491.939 507.817 456.146 528.067C420.348 548.312 377.813 553.794 337.894 543.305L201.064 507.351C161.145 496.861 127.112 471.258 106.454 436.177C85.7946 401.093 80.2015 359.404 90.9043 320.28Z" fill="#212121"/>
<defs>
<filter id="filter0_d_1921_3431" x="17.6466" y="18.1067" width="601.898" height="585.449" filterUnits="userSpaceOnUse" color-interpolation-filters="sRGB">
<feFlood flood-opacity="0" result="BackgroundImageFix"/>
<feColorMatrix in="SourceAlpha" type="matrix" values="0 0 0 0 0 0 0 0 0 0 0 0 0 0 0 0 0 0 127 0" result="hardAlpha"/>
<feOffset dy="4.75655"/>
<feGaussianBlur stdDeviation="4.75655"/>
<feColorMatrix type="matrix" values="0 0 0 0 0 0 0 0 0 0 0 0 0 0 0 0 0 0 0.161 0"/>
<feBlend mode="normal" in2="BackgroundImageFix" result="effect1_dropShadow_1921_3431"/>
<feBlend mode="normal" in="SourceGraphic" in2="effect1_dropShadow_1921_3431" result="shape"/>
</filter>
<filter id="filter1_d_1921_3431" x="4.37313" y="9.04055" width="625.853" height="606.335" filterUnits="userSpaceOnUse" color-interpolation-filters="sRGB">
<feFlood flood-opacity="0" result="BackgroundImageFix"/>
<feColorMatrix in="SourceAlpha" type="matrix" values="0 0 0 0 0 0 0 0 0 0 0 0 0 0 0 0 0 0 127 0" result="hardAlpha"/>
<feOffset dy="4.75655"/>
<feGaussianBlur stdDeviation="4.75655"/>
<feColorMatrix type="matrix" values="0 0 0 0 0 0 0 0 0 0 0 0 0 0 0 0 0 0 0.161 0"/>
<feBlend mode="normal" in2="BackgroundImageFix" result="effect1_dropShadow_1921_3431"/>
<feBlend mode="normal" in="SourceGraphic" in2="effect1_dropShadow_1921_3431" result="shape"/>
</filter>
<linearGradient id="paint0_linear_1921_3431" x1="530.76" y1="732.026" x2="94.4861" y2="-66.5402" gradientUnits="userSpaceOnUse">
<stop stop-color="#00E2FF"/>
<stop offset="1" stop-color="#8900FF"/>
</linearGradient>
<linearGradient id="paint1_linear_1921_3431" x1="538.187" y1="749.112" x2="86.8203" y2="-80.4481" gradientUnits="userSpaceOnUse">
<stop stop-color="#05FF00"/>
<stop offset="1" stop-color="#10400B"/>
</linearGradient>
<linearGradient id="paint2_linear_1921_3431" x1="57.6244" y1="190.459" x2="572.597" y2="435.475" gradientUnits="userSpaceOnUse">
<stop stop-color="#45A225"/>
<stop offset="1" stop-color="#1F631D"/>
</linearGradient>
</defs>
</svg>

<svg viewBox="0 0 634 618" fill="none" xmlns="http://www.w3.org/2000/svg"><g filter="url(#a)"><path d="M316.125 22.863c-159.591 0-288.965 126.798-288.965 283.212 0 156.412 129.374 283.211 288.965 283.211h4.94c159.592 0 288.967-126.799 288.967-283.211 0-156.414-129.375-283.212-288.967-283.212h-4.94Z" fill="url(#b)"/></g><g filter="url(#c)"><path d="M13.886 404.842v-194.78c0-52.052 21.099-101.973 58.654-138.78 37.555-36.807 88.49-57.485 141.601-57.485H420.46c53.112 0 104.046 20.679 141.6 57.486 37.554 36.806 58.653 86.727 58.653 138.779v194.78c0 52.051-21.094 101.973-58.653 138.781-37.554 36.804-88.488 57.483-141.6 57.483H214.141c-53.111 0-104.047-20.674-141.602-57.483-37.555-36.808-58.653-86.73-58.653-138.781Z" fill="url(#d)"/></g><path d="m17.61 274.563 80.03-168.207c21.065-44.277 59.214-78.538 106.054-95.247 46.841-16.71 98.535-14.497 143.711 6.15l178.076 81.385c22.371 10.223 42.467 24.664 59.139 42.499 16.676 17.834 29.604 38.713 38.043 61.444a180.79 180.79 0 0 1 11.158 71.036c-1.077 24.167-7.002 47.889-17.43 69.813l-80.03 168.206c-21.067 44.277-59.217 78.54-106.057 95.247-46.84 16.712-98.534 14.499-143.71-6.148l-178.077-81.386c-45.176-20.647-80.134-58.037-97.182-103.945-17.049-45.906-14.792-96.571 6.274-140.847Z" fill="url(#e)"/><path d="m90.904 320.28 34.547-126.284c10.703-39.124 36.825-72.478 72.62-92.725 35.795-20.248 78.331-25.729 118.25-15.24l136.83 35.956c39.92 10.49 73.952 36.092 94.608 71.174 20.66 35.082 26.253 76.771 15.553 115.895l-34.55 126.285c-10.7 39.122-36.823 72.476-72.616 92.726-35.798 20.245-78.333 25.727-118.252 15.238l-136.83-35.954c-39.919-10.49-73.952-36.093-94.61-71.174-20.66-35.084-26.252-76.773-15.55-115.897Z" fill="#212121"/><defs><linearGradient id="b" x1="530.76" y1="732.026" x2="94.486" y2="-66.54" gradientUnits="userSpaceOnUse"><stop stop-color="#00E2FF"/><stop offset="1" stop-color="#8900FF"/></linearGradient><linearGradient id="d" x1="538.187" y1="749.112" x2="86.82" y2="-80.448" gradientUnits="userSpaceOnUse"><stop stop-color="#05FF00"/><stop offset="1" stop-color="#10400B"/></linearGradient><linearGradient id="e" x1="57.624" y1="190.459" x2="572.597" y2="435.475" gradientUnits="userSpaceOnUse"><stop stop-color="#45A225"/><stop offset="1" stop-color="#1F631D"/></linearGradient><filter id="a" x="17.647" y="18.107" width="601.898" height="585.449" filterUnits="userSpaceOnUse" color-interpolation-filters="sRGB"><feFlood flood-opacity="0" result="BackgroundImageFix"/><feColorMatrix in="SourceAlpha" values="0 0 0 0 0 0 0 0 0 0 0 0 0 0 0 0 0 0 127 0" result="hardAlpha"/><feOffset dy="4.757"/><feGaussianBlur stdDeviation="4.757"/><feColorMatrix values="0 0 0 0 0 0 0 0 0 0 0 0 0 0 0 0 0 0 0.161 0"/><feBlend in2="BackgroundImageFix" result="effect1_dropShadow_1921_3431"/><feBlend in="SourceGraphic" in2="effect1_dropShadow_1921_3431" result="shape"/></filter><filter id="c" x="4.373" y="9.041" width="625.853" height="606.335" filterUnits="userSpaceOnUse" color-interpolation-filters="sRGB"><feFlood flood-opacity="0" result="BackgroundImageFix"/><feColorMatrix in="SourceAlpha" values="0 0 0 0 0 0 0 0 0 0 0 0 0 0 0 0 0 0 127 0" result="hardAlpha"/><feOffset dy="4.757"/><feGaussianBlur stdDeviation="4.757"/><feColorMatrix values="0 0 0 0 0 0 0 0 0 0 0 0 0 0 0 0 0 0 0.161 0"/><feBlend in2="BackgroundImageFix" result="effect1_dropShadow_1921_3431"/><feBlend in="SourceGraphic" in2="effect1_dropShadow_1921_3431" result="shape"/></filter></defs></svg>
